X:1
T:James Gibb editions
T:Christ the Lord is risen today - Barnby
%%score [ ( 1 2 ) ( 3 4 ) ]
L:1/8
Q:1/4=96
M:4/4
K:C
V:1 treble nm="Midi_74"
V:2 treble 
V:3 bass nm="Midi_74"
V:4 bass 
V:1
"^77. 77. D""^Christ the Lord is risen today""^Joseph Barnby\n(1838-96)""^Jane Eliza Leeson\n(1807-82)"!f! G2 G2 c3 G | %1
 A2 A2 G4 || e2 d2 c2 B2 | A2 A2 G4 || G2 G2 c2 G2 | A2 A2 G4 || G2 A2 B2 c2 | ^F2"^1" F2 E4 || %8
[M:4/4] =F2 F2 E2 E2 | A2 A2 ^G4 || A2 B2 c2 B2 | A2 A2 G4 || G2 G2 c3 G | A2 A2 G4 || %14
 e2 e2 c2 =G2 | A2 d2 c4 || c4 c4 |] %17
V:2
 E2 F2 G3 E | F2 F2 E4 || G2 G2 E2 E2 | C2 D2 D4 || E2 F2 G2 E2 | F2 F2 F4 || E2 E2 E2 E2 | %7
 E2 ^D2 E4 ||[M:4/4] C2 D2 D2 C2 | E2 E2 E4 || E2 D2 C2 D2 | E2 D2 D4 || E2 F2 G3 E | F2 F2 F4 || %14
 E2 ^G2 A2 E2 | F2 F2 E4 || F4 E4 |] %17
V:3
 C2 B,2 C3 C | C2 C2 C4 || C2 B,2 C2 G,2 | A,2 C2 (C2 B,2) || C2 B,2 C2 C2 | C2 C2 D4 || %6
 C2 A,2 G,2 ^F,2 | ^F,2 B,2 G,4 || %8
[M:4/4]"^1 Christ the Lord is ris'n today;\nChristians, haste your vows to pay;\nMake your joy and praises known\nAt the Paschal Victim's throne.\nFor the sheep the Lamb has bled,\nSinless in the sinner's stead.\nChrist the Lord is ris'n on high;\nNow he lives, no more to die.\n\n2 Christ, the Victim undefiled,\nGod and sinners reconciled,\nWhen in fierce and bloody strife\nMet together death and life.\nChristians, on this happy day,\nRaise your hearts with joy and say:\n\"Christ the Lord is ris'n on high;\nNow he lives no more to die.\"" A,2 B,2 G,2 G,2 | %9
 C2 C2 B,4 || E,2 ^F,^G, A,2 =G,2 | G,2 ^F,C B,4 || %12
"^3 Say, O wond'ring Mary, say\nWhat you saw along your way.\n\"I beheld the glory bright\nOf the risen Lord of light,\nEmpty tomb and angels seen\nWhere Christ's body once had been.\nChrist my hope, raised gloriously,\nMakes his way to Galilee.\"\n\n4 Christ, who once for sinners bled,\nNow the first-born from the dead,\nThroned in endless might and pow'r\nLives and reigns for evermore.\nHail, eternal Hope on high!\nHail, O King of victory!\nHail, our Prince of life adored!\nShow us mercy, gracious Lord." C2 B,2 C3 C | %13
 C2 C2 D4 || C2 B,2 A,2 _B,2 | A,2 B,2 C4 || A,4 G,4 |] %17
V:4
 C,2 D,2 E,3 C, | F,2 A,2 C4 || C2 G,2 A,2 E,2 | F,2 ^F,2 G,4 || C,2 D,2 E,2 C,2 | F,2 A,,2 B,,4 || %6
 C,2 C,2 B,,2 A,,2 | B,,2 B,,2 E,4 ||[M:4/4] D,2 G,,2 C,2 C,2 | A,,2 C,2 E,4 || %10
 C,2 B,,2 A,,2 B,,2 | C,2 D,2 G,4 || C,2 D,2 E,3 C, | F,2 A,2 B,4 || C2 E,2 A,2 C,2 | %15
 F,2 G,2 C,4 || F,4 C,4 |] %17

